!!!COM: Olivier (Eugène Prosper Charles) Messiaen
!!!OTL: [T764_Mes-w22p111m1-10]
**kern	**dynam	**kern	**dynam	**kern	**dynam	**kern	**dynam	**kern	**dynam
*grp:A	*	*grp:A	*	*grp:A	*	*grp:B	*	*grp:B	*
*part5	*part5	*part4	*part4	*part3	*part3	*part2	*part2	*part1	*part1
*staff5	*	*staff4	*	*staff3	*	*staff2	*	*staff1	*
*I"Vibraphone	*	*I"Susp. Cymbal	*	*I"Wood Block	*	*I"Bassoon 1.	*	*I"Piccolo	*
*I'Vib.	*	*I'S.Cymb.	*	*I'W.B.	*	*I'1.Bsn.	*	*I'Picc.	*
*ICidio	*	*ICidio	*	*ICidio	*	*ICww	*	*ICww	*
*Ivibra	*	*Icymba	*	*Iwbloc	*	*Ifagot	*	*Ipicco	*
*clefG2	*	*clefX	*	*clefX	*	*clefF4	*	*clefG2	*
*	*	*	*	*	*	*	*	*ITrd-7c-12	*
*k[]	*	*k[]	*	*k[]	*	*k[]	*	*k[]	*
*C:	*	*C:	*	*C:	*	*C:	*	*C:	*
*M3/4	*	*M3/4	*	*M3/4	*	*M3/4	*	*M3/4	*
=1	=1	=1	=1	=1	=1	=1	=1	=1	=1
!	!	!	!	!	!	!	!	!LO:TX:t=[[quarter]=66]	!
!LO:TX:a:t=(sonne à l' 8ve signé) tenu et vibré	!	!	!	!	!	!LO:TX:a:t=Solo	!	!LO:TX:a:t=Solo	!
[2.d#X [2.dn [2.e	pp	[2.Rcc\	pp	4%3r	.	16D#X'LL	mf	16dddd#X'LL	mf
.	.	.	.	.	.	16DDn'	.	16ddd'	.
.	.	.	.	.	.	16EE'JJ	.	16eee'JJ	.
.	.	.	.	.	.	16r	.	16r	.
.	.	.	.	.	.	16DDn'LL	.	16ddd'LL	.
.	.	.	.	.	.	16D#X'	.	16dddd#X'	.
.	.	.	.	.	.	16EE'JJ	.	16eee'JJ	.
.	.	.	.	.	.	16r	.	16r	.
.	.	.	.	.	.	16Dn'LL	.	16dddd'LL	.
.	.	.	.	.	.	16DD#X'	.	16ddd#X'	.
.	.	.	.	.	.	16EE'JJ	.	16eee'JJ	.
.	.	.	.	.	.	16r	.	16r	.
=2	=2	=2	=2	=2	=2	=2	=2	=2	=2
4d#X_ 4dnX_ 4e_	.	4Rcc\_	.	4%3r	.	16GGn'LL	.	16ggg'LL	.
.	.	.	.	.	.	16GG#X'	.	16ggg#X'	.
.	.	.	.	.	.	16AA#X'	.	16aaa#X'	.
.	.	.	.	.	.	16C#X'JJ	.	16cccc#X'JJ	.
16d#KL] 16d] 16e]	.	16Rcc\KL]	.	.	.	16CCn'KL	.	16ccc'KL	.
[8.d#J [8.d [8.e	.	[8.Rcc\J	.	.	.	8BB'	.	8bbb'	.
.	.	.	.	.	.	(16BB-XJk	.	(16bbb-XJk	.
4d#_ 4d_ 4e_	.	4Rcc\_	.	.	.	16E-XLL	.	16eeee-XLL	.
.	.	.	.	.	.	16DDn	.	16ddd	.
.	.	.	.	.	.	16C#X	.	16cccc#X	.
.	.	.	.	.	.	[16EEnJJ	.	[16eeeJJ	.
=3	=3	=3	=3	=3	=3	=3	=3	=3	=3
2d#X_ 2dnX_ 2e_	.	2Rcc\_	.	4%3r	.	16EELL])	.	16eeeLL])	.
.	.	.	.	.	.	16D#X'	.	16dddd#X'	.
.	.	.	.	.	.	16DDn'	.	16ddd'	.
.	.	.	.	.	.	16EE'JJ	.	16eee'JJ	.
.	.	.	.	.	.	16r	.	16r	.
.	.	.	.	.	.	16DDn'LL	.	16ddd'LL	.
.	.	.	.	.	.	16D#X'	.	16dddd#X'	.
.	.	.	.	.	.	16EE'JJ	.	16eee'JJ	.
16d#KL] 16d] 16e]	.	16Rcc\KL]	.	.	.	16r	.	16r	.
[8.d#J [8.d [8.e	.	[8.Rcc\J	.	.	.	16Dn'LL	.	16dddd'LL	.
.	.	.	.	.	.	16DD#X'	.	16ddd#X'	.
.	.	.	.	.	.	16EE'JJ	.	16eee'JJ	.
=4	=4	=4	=4	=4	=4	=4	=4	=4	=4
2.d#X] 2.dnX] 2.e]	.	2.Rcc\]	.	4%3r	.	16r	.	16r	.
.	.	.	.	.	.	16GGn'LL	.	16ggg'LL	.
.	.	.	.	.	.	16GG#X'	.	16ggg#X'	.
.	.	.	.	.	.	16AA#X'JJ	.	16aaa#X'JJ	.
.	.	.	.	.	.	16C#X'LL	.	16cccc#X'LL	.
.	.	.	.	.	.	16CCn'J	.	16ccc'J	.
.	.	.	.	.	.	8BB'J	.	8bbb'J	.
.	.	.	.	.	.	(16BB-XLL	.	(16bbb-XLL	.
.	.	.	.	.	.	16E-X	.	16eeee-X	.
.	.	.	.	.	.	16DDn	.	16ddd	.
.	.	.	.	.	.	16C#XJJ	.	16cccc#XJJ	.
=5	=5	=5	=5	=5	=5	=5	=5	=5	=5
[2.d#X [2.dn [2.e	.	[2.Rcc\	.	4r	.	8EEnL	.	8eeeL)	.
.	.	.	.	.	.	(16BB-XL	.	(16bbb-XL	.
.	.	.	.	.	.	16E-XJJ	.	16eeee-XJJ	.
.	.	.	.	4Rcc\	mf	16DDLL	.	16dddLL	.
.	.	.	.	.	.	16C#X	.	16cccc#X	.
.	.	.	.	.	.	16EEn	.	16eee	.
.	.	.	.	.	.	16BB-XJJ	.	16bbb-XJJ	.
.	.	.	.	4Rcc\	.	8EEnL)	.	8eeeL)	.
.	.	.	.	.	.	(16BB-XL	.	(16bbb-XL	.
.	.	.	.	.	.	16E-XJJ	.	16eeee-XJJ	.
=6	=6	=6	=6	=6	=6	=6	=6	=6	=6
8d#XL] 8dnX] 8e]	.	8Rcc\L]	.	4Rcc\	.	16DDLL	.	16dddLL	.
.	.	.	.	.	.	16C#XJ	.	16cccc#XJ	.
[8d#XJ [8dn [8e	.	[8Rcc\J	.	.	.	8EEnJ)	.	8eeeJ)	.
2d#_ 2d_ 2e_	.	2Rcc\_	.	8Rcc\L	.	16G#X'LL	.	16gggg#X'LL	.
.	.	.	.	.	.	16Dn'	.	16dddd'	.
.	.	.	.	[8Rcc\J	.	16D#X'	.	16dddd#X'	.
.	.	.	.	.	.	16G#X'JJ	.	16gggg#X'JJ	.
.	.	.	.	16Rcc\KL]	.	16Dn'LL	.	16dddd'LL	.
.	.	.	.	8Rcc\	.	16GGn'	.	16ggg'	.
.	.	.	.	.	.	16C#X'	.	16cccc#X'	.
.	.	.	.	[16Rcc\Jk	.	16F#X'JJ	.	16ffff#X'JJ	.
=7	=7	=7	=7	=7	=7	=7	=7	=7	=7
8.d#XL] 8.dnX] 8.e]	.	8.Rcc\L]	.	16Rcc\KL]	.	16BB'LL	.	16bbb'LL	.
.	.	.	.	8Rcc\	.	16FFn'J	.	16fff'J	.
.	.	.	.	.	.	8EE'J	.	8eee'J	.
[16g#XJk [16an [16b-X	.	[16Rcc\Jk	.	[16Rcc\Jk	.	.	.	.	.
!	!	!	!	!	!	!LO:TX:b:i:t=stacc.	!	!LO:TX:b:i:t=stacc.	!
2g#_ 2a_ 2b-_	.	2Rcc\_	.	16Rcc\KL]	.	16D#XLL	.	16dddd#XLL	.
.	.	.	.	8.Rcc\J	.	16DDn	.	16ddd	.
.	.	.	.	.	.	16EE	.	16eee	.
.	.	.	.	.	.	16DDnJJ	.	16dddJJ	.
.	.	.	.	8.Rcc\L	.	16D#XLL	.	16dddd#XLL	.
.	.	.	.	.	.	16EE	.	16eee	.
.	.	.	.	.	.	16Dn	.	16dddd	.
.	.	.	.	[16Rcc\Jk	.	16DD#XJJ	.	16ddd#XJJ	.
=8	=8	=8	=8	=8	=8	=8	=8	=8	=8
8.g#XL] 8.a] 8.b-X]	.	8.Rcc\L]	.	8Rcc\L]	.	16EELL	.	16eeeLL	.
.	.	.	.	.	.	16GGn	<	16ggg	<
.	.	.	.	16Rcc\L	.	16GG#X	.	16ggg#X	.
[16g#Jk [16a [16b-	.	[16Rcc\Jk	.	[16Rcc\JJ	.	16AA#XJJ	.	16aaa#XJJ	.
2g#_ 2a_ 2b-_	.	2Rcc\_	.	16Rcc\KL]	.	16C#XLL	.	16cccc#XLL	.
.	.	.	.	8.Rcc\J	.	16CCn	.	16ccc	.
.	.	.	.	.	.	16BBn	.	16bbb	.
.	.	.	.	.	.	16FFnJJ	.	16fffJJ	.
.	.	.	.	4Rcc\	.	16EELL	.	16eeeLL	.
.	.	.	.	.	.	16Gn	.	16gggg	.
.	.	.	.	.	.	16D	.	16dddd	.
.	.	.	.	.	.	16GG#XJJ	.	16ggg#XJJ	.
=9	=9	=9	=9	=9	=9	=9	=9	=9	=9
8g#XL] 8a] 8b-X]	.	8Rcc\L]	.	2Rcc\	.	16FnMLL	<	16ffffMLLT	<
.	.	.	.	.	.	16E	.	16eeee	.
[8g#J [8a [8b-	.	[8Rcc\J	.	.	.	16E	.	16eeee	.
.	.	.	.	.	.	16EJJ	.	16eeeeJJ	.
2g#] 2a] 2b-]	.	2Rcc\]	.	.	.	16ELL	.	16eeeeLL	.
.	.	.	.	.	.	16B-X^	sf [	16bbbb-X^	sf [
.	.	.	.	.	.	16E-X	.	16eeee-X	.
.	.	.	.	.	.	16C#XJJ	.	16cccc#XJJ	.
.	.	.	.	4Rcc\	.	16BBnLL	.	16bbbLL	.
.	.	.	.	.	.	16AA#X	.	16aaa#X	.
.	.	.	.	.	.	16GG#X	>	16ggg#X	>
.	.	.	.	.	.	16GGnJJ	.	16gggJJ	.
=10	=10	=10	=10	=10	=10	=10	=10	=10	=10
[2d#X [2dn [2e	.	[2Rcc\	.	4Rcc\	.	16C#XLL	.	16cccc#XLL	.
.	.	.	.	.	.	16CCn	.	16ccc	.
.	.	.	.	.	.	16D#X	.	16dddd#X	.
.	.	.	.	.	.	16DDnJJ	.	16dddJJ	.
.	.	.	.	4Rcc\	.	8EEnL	.	8eeeL	.
.	.	.	.	.	.	(16BB-XL	mf	(16bbb-XL	mf
.	.	.	.	.	.	16E-XJJ	.	16eeee-XJJ	.
16d#KL] 16d] 16e]	.	16Rcc\KL]	.	8Rcc\L	.	16DDLL	.	16dddLL	.
[8.d#J [8.d [8.e	.	[8.Rcc\J	.	.	.	16C#X	.	16cccc#X	.
.	.	.	.	[8Rcc\J	.	16EEn	.	16eee	.
.	.	.	.	.	.	16BB-XJJ)	.	16bbb-XJJ)	.
=||	=||	=||	=||	=||	=||	=||	=||	=||	=||
*-	*-	*-	*-	*-	*-	*-	*-	*-	*-
!!!system-decoration: [(s1,s2)][(s3,s4)][(s5)]
!!!RDF**dynam: > = dim.
